X:18
T:Trip to New Market. THO5.018
M:2/4
L:1/8
B:Thompson's Complete Collection of 200 Favourite Dances Vol.5
F:https://www.libraryofdance.org/manuals/1780c-Thompson-Compleat-5.pdf
Z:vmp. Peter Dunk 2024
Q:1/4=120
K:A
AcBA|BAGA|Bcdc|(cB)(BG)|
AcBA|BAGA|BdcB|(cA) A2:|
|:eAAA|fAAA|eagd|(cB)(Bc)|
dfed|dcBA|BdcB|(cA) A2:|
W:
W:Half Right and Left ./. Back again ./:
W:Cross over one Couple :/. Right and Left :/:

